www/assets/icons/filter_vintage.svg

<svg width="24" height="24" viewBox="0 0 24 24" xmlns="http://www.w3.org/2000/svg" fill='currentColor'><path d="M18.7 12.4001C18.42 12.2401 18.13 12.1101 17.84 12.0001C18.13 11.8901 18.42 11.7601 18.7 11.6001C20.62 10.4901 21.69 8.48006 21.7 6.41006C19.91 5.38006 17.63 5.30006 15.7 6.41006C15.42 6.57006 15.16 6.76006 14.92 6.95006C14.97 6.64006 15 6.32006 15 6.00006C15 3.78006 13.79 1.85006 12 0.810059C10.21 1.85006 8.99999 3.78006 8.99999 6.00006C8.99999 6.32006 9.02999 6.64006 9.07999 6.95006C8.83999 6.75006 8.57999 6.56006 8.29999 6.40006C6.37999 5.29006 4.09999 5.37006 2.29999 6.40006C2.29999 8.47006 3.36999 10.4801 5.29999 11.5901C5.57999 11.7501 5.86999 11.8801 6.15999 11.9901C5.86999 12.1001 5.57999 12.2301 5.29999 12.3901C3.37999 13.5001 2.30999 15.5101 2.29999 17.5801C4.08999 18.6101 6.36999 18.6901 8.29999 17.5801C8.57999 17.4201 8.83999 17.2301 9.07999 17.0401C9.02999 17.3601 8.99999 17.6801 8.99999 18.0001C8.99999 20.2201 10.21 22.1501 12 23.1901C13.79 22.1501 15 20.2201 15 18.0001C15 17.6801 14.97 17.3601 14.92 17.0501C15.16 17.2501 15.42 17.4301 15.7 17.5901C17.62 18.7001 19.9 18.6201 21.7 17.5901C21.69 15.5201 20.62 13.5101 18.7 12.4001ZM12 16.0001C9.78999 16.0001 7.99999 14.2101 7.99999 12.0001C7.99999 9.79006 9.78999 8.00006 12 8.00006C14.21 8.00006 16 9.79006 16 12.0001C16 14.2101 14.21 16.0001 12 16.0001Z"/></svg>

<svg xmlns="http://www.w3.org/2000/svg" width="24" height="24" viewBox="0 0 24 24" fill='currentColor'><path d="M18.7 12.4a6 6 0 0 0-.86-.4c.29-.11.58-.24.86-.4a6.01 6.01 0 0 0 3-5.19 6.01 6.01 0 0 0-6 0c-.28.16-.54.35-.78.54.05-.31.08-.63.08-.95 0-2.22-1.21-4.15-3-5.19C10.21 1.85 9 3.78 9 6c0 .32.03.64.08.95-.24-.2-.5-.39-.78-.55a6.01 6.01 0 0 0-6 0 5.97 5.97 0 0 0 3 5.19c.28.16.57.29.86.4-.29.11-.58.24-.86.4a6.01 6.01 0 0 0-3 5.19 6.01 6.01 0 0 0 6 0c.28-.16.54-.35.78-.54-.05.32-.08.64-.08.96 0 2.22 1.21 4.15 3 5.19 1.79-1.04 3-2.97 3-5.19 0-.32-.03-.64-.08-.95q.36.3.78.54a6.01 6.01 0 0 0 6 0 6.01 6.01 0 0 0-3-5.19M12 16c-2.21 0-4-1.79-4-4s1.79-4 4-4 4 1.79 4 4-1.79 4-4 4"/></svg>
